resources/svg/fullscreen-exit-fill.svg

<svg xmlns="http://www.w3.org/2000/svg" viewBox="0 0 24 24" fill="currentColor">
    <g>
        <path fill="none" d="M0 0h24v24H0z"/>
        <path d="M18 7h4v2h-6V3h2v4zM8 9H2V7h4V3h2v6zm10 8v4h-2v-6h6v2h-4zM8 15v6H6v-4H2v-2h6z"/>
    </g>
</svg>

<svg fill="currentColor" viewBox="0 0 24 24" xmlns="http://www.w3.org/2000/svg"><path d="M18 7H22V9H16V3H18V7ZM8 9H2V7H6V3H8V9ZM18 17V21H16V15H22V17H18ZM8 15V21H6V17H2V15H8Z"/></svg>
